!!!OTL: Clementine
!!!COM: Montrose, Percy
!!!ODT: 1863 or 1883
!!!YOR: The Folksong Fake Book
!!!YOY: 2000
!!!AST: Folk song
!!!YEC: Brian Luke, 2001
**kern	**harm
*k[b-]	*k[b-]
*M3/4	*M3/4
*F:	*F:
*>A	*>A
8.f	.
16f	.
=1	=1
4f	I
4c	.
8.a	.
16a	.
=2	=2
4a	.
4f	.
8.f	.
16a	.
=3	=3
4cc	.
4cc	.
8.b-	.
16a	.
=4	=4
2g	V7
8.g	.
16a	.
=5	=5
4b-	.
4b-	.
8.a	.
16a-	.
=6	=6
4a	I
4f	.
8.f	.
16a	.
=7	=7
4g	V7
4c	.
8.e	.
16g	.
=8	=8
2f	I;
*-	*-
